img/meteo_vent.svg

<?xml version="1.0" encoding="utf-8"?>
<!-- Generator: Adobe Illustrator 22.1.0, SVG Export Plug-In . SVG Version: 6.00 Build 0)  -->
<svg version="1.1" id="Calque_12" xmlns="http://www.w3.org/2000/svg" xmlns:xlink="http://www.w3.org/1999/xlink" x="0px" y="0px"
	 viewBox="0 0 128 128" style="enable-background:new 0 0 128 128;" xml:space="preserve">
<style type="text/css">
	.st0{fill:#2E6480;}
	.st1{fill:url(#SVGID_1_);}
	.st2{fill:url(#SVGID_2_);}
	.st3{fill:url(#SVGID_3_);}
	.st4{fill:url(#SVGID_4_);}
	.st5{fill:url(#SVGID_5_);}
	.st6{fill:url(#SVGID_6_);}
	.st7{fill:url(#SVGID_7_);}
</style>
<g>
	<path class="st0" d="M128,64c0,35.3-28.7,64-64,64C28.7,128,0,99.3,0,64C0,28.7,28.7,0,64,0C99.3,0,128,28.7,128,64z"/>
	<g>
		<g>
			<g>
				<linearGradient id="SVGID_1_" gradientUnits="userSpaceOnUse" x1="39.8544" y1="59.943" x2="25.4762" y2="82.801">
					<stop  offset="0" style="stop-color:#9CF2FF"/>
					<stop  offset="0.4019" style="stop-color:#9AF0FF"/>
					<stop  offset="0.6274" style="stop-color:#91E8FF"/>
					<stop  offset="0.8092" style="stop-color:#84DBFF"/>
					<stop  offset="0.9669" style="stop-color:#70C9FF"/>
					<stop  offset="1" style="stop-color:#6BC4FF"/>
				</linearGradient>
				<path class="st1" d="M39.2,88.9c14.5-0.7,13.3-18.7,5.5-26.3c-6.9-6.7-18.6-9.8-30.2-0.2c27-15.8,37.7,17,27.9,20.3
					c-9.2,3.2-12.3-7.4-6.1-12.3c-0.3,0.1-0.5,0.2-0.8,0.3C26.4,77.3,31.7,89.2,39.2,88.9z"/>
				<linearGradient id="SVGID_2_" gradientUnits="userSpaceOnUse" x1="15.972" y1="43.4393" x2="49.955" y2="91.207">
					<stop  offset="0" style="stop-color:#99E8FF"/>
					<stop  offset="0.2786" style="stop-color:#96E6FF"/>
					<stop  offset="0.4778" style="stop-color:#8DE0FF"/>
					<stop  offset="0.6522" style="stop-color:#7DD5FF"/>
					<stop  offset="0.8123" style="stop-color:#67C6FF"/>
					<stop  offset="0.9614" style="stop-color:#4BB3FF"/>
					<stop  offset="1" style="stop-color:#42ADFF"/>
				</linearGradient>
				<path class="st2" d="M53,69.3C48,55.5,27.7,47.3,14.2,62.6c0.1-0.1,0.3-0.2,0.4-0.2c11.5-9.6,23.3-6.5,30.2,0.2
					c7.8,7.6,9,25.6-5.5,26.3c-7.6,0.4-12.9-11.6-3.6-18.2c-12.7,4.3-12,16.3-3.2,21C48.2,100.1,58.3,83.4,53,69.3z"/>
			</g>
			<g>
				<linearGradient id="SVGID_3_" gradientUnits="userSpaceOnUse" x1="59.2601" y1="45.7908" x2="96.1653" y2="97.6662">
					<stop  offset="0" style="stop-color:#99E8FF"/>
					<stop  offset="0.2786" style="stop-color:#96E6FF"/>
					<stop  offset="0.4778" style="stop-color:#8DE0FF"/>
					<stop  offset="0.6522" style="stop-color:#7DD5FF"/>
					<stop  offset="0.8123" style="stop-color:#67C6FF"/>
					<stop  offset="0.9614" style="stop-color:#4BB3FF"/>
					<stop  offset="1" style="stop-color:#42ADFF"/>
				</linearGradient>
				<path class="st3" d="M77.2,90.3c-11-4.6-17.8-17.5-20.2-22.6c-0.2-0.5-0.5-0.9-0.7-1.4c7.8,32.3,45.8,42.7,49.8,15.1
					C100,92.6,89.1,95.3,77.2,90.3z"/>
				<linearGradient id="SVGID_4_" gradientUnits="userSpaceOnUse" x1="57.9603" y1="72.1032" x2="100.7883" y2="89.4089">
					<stop  offset="0" style="stop-color:#9CF2FF"/>
					<stop  offset="0.4019" style="stop-color:#9AF0FF"/>
					<stop  offset="0.6274" style="stop-color:#91E8FF"/>
					<stop  offset="0.8092" style="stop-color:#84DBFF"/>
					<stop  offset="0.9669" style="stop-color:#70C9FF"/>
					<stop  offset="1" style="stop-color:#6BC4FF"/>
				</linearGradient>
				<path class="st4" d="M77.2,90.3c11.9,5,22.8,2.3,29-8.9c0-0.1,0-0.1,0-0.2C95.3,94.6,66.6,86.1,57,67.7
					C59.4,72.8,66.2,85.7,77.2,90.3z"/>
			</g>
			<g>
				<linearGradient id="SVGID_5_" gradientUnits="userSpaceOnUse" x1="11.2723" y1="45.0436" x2="99.496" y2="65.884">
					<stop  offset="0" style="stop-color:#9CF2FF"/>
					<stop  offset="0.4019" style="stop-color:#9AF0FF"/>
					<stop  offset="0.6274" style="stop-color:#91E8FF"/>
					<stop  offset="0.8092" style="stop-color:#84DBFF"/>
					<stop  offset="0.9669" style="stop-color:#70C9FF"/>
					<stop  offset="1" style="stop-color:#6BC4FF"/>
				</linearGradient>
				<path class="st5" d="M34,48.6c16,0.3,28.3,14.6,42.7,23.3c14.8,8.9,28.3,1,29.2-9c0.9-9.7-8.6-17-17.2-17.4
					c-0.1,0-0.1,0-0.2,0.1C102,48.9,98.9,63.2,93,67c-17,11.1-54.9-49.8-80.9-3.7c0.3-0.4,0.7-0.8,1-1.2C16,57.7,23.2,48.4,34,48.6z
					"/>
				<linearGradient id="SVGID_6_" gradientUnits="userSpaceOnUse" x1="32.12" y1="17.2022" x2="85.6414" y2="92.4338">
					<stop  offset="0" style="stop-color:#99E8FF"/>
					<stop  offset="0.2786" style="stop-color:#96E6FF"/>
					<stop  offset="0.4778" style="stop-color:#8DE0FF"/>
					<stop  offset="0.6522" style="stop-color:#7DD5FF"/>
					<stop  offset="0.8123" style="stop-color:#67C6FF"/>
					<stop  offset="0.9614" style="stop-color:#4BB3FF"/>
					<stop  offset="1" style="stop-color:#42ADFF"/>
				</linearGradient>
				<path class="st6" d="M88.7,45.5c8.6,0.5,18.1,7.7,17.2,17.4c-0.9,10-14.3,17.9-29.2,9c-14.4-8.7-26.7-23-42.7-23.3
					c-10.8-0.2-18.1,9-20.9,13.5c9-10.5,17-13.2,26.4-9.9c18.1,6.3,31.3,31.1,52.3,29.4C123.3,79.1,112.6,38.1,88.7,45.5z"/>
			</g>
		</g>
		<linearGradient id="SVGID_7_" gradientUnits="userSpaceOnUse" x1="23.3111" y1="41.62" x2="90.6305" y2="57.5223">
			<stop  offset="0" style="stop-color:#9CF2FF"/>
			<stop  offset="0.4019" style="stop-color:#9AF0FF"/>
			<stop  offset="0.6274" style="stop-color:#91E8FF"/>
			<stop  offset="0.8092" style="stop-color:#84DBFF"/>
			<stop  offset="0.9669" style="stop-color:#70C9FF"/>
			<stop  offset="1" style="stop-color:#6BC4FF"/>
		</linearGradient>
		<path class="st7" d="M26.5,44.8c25.2-15.4,47.8,27.8,65.4,17.7c6.3-3.6,3.2-15.7-8.3-11.3c6.3,0,6,5.1,2.1,6.6
			C77.2,61.1,49.4,25,26.5,44.8z"/>
	</g>
</g>
</svg>

<?xml version="1.0" encoding="UTF-8" standalone="no"?>
<!-- Generator: Adobe Illustrator 22.1.0, SVG Export Plug-In . SVG Version: 6.00 Build 0)  -->

<svg
   version="1.1"
   id="Calque_12"
   x="0px"
   y="0px"
   viewBox="0 0 128 128"
   style="enable-background:new 0 0 128 128;"
   xml:space="preserve"
   sodipodi:docname="meteo_vent.svg"
   inkscape:version="1.3 (0e150ed6c4, 2023-07-21)"
   xmlns:inkscape="http://www.inkscape.org/namespaces/inkscape"
   xmlns:sodipodi="http://sodipodi.sourceforge.net/DTD/sodipodi-0.dtd"
   xmlns="http://www.w3.org/2000/svg"
   xmlns:svg="http://www.w3.org/2000/svg"><defs
   id="defs46">&#10;	&#10;	&#10;</defs><sodipodi:namedview
   id="namedview46"
   pagecolor="#ffffff"
   bordercolor="#666666"
   borderopacity="1.0"
   inkscape:showpageshadow="2"
   inkscape:pageopacity="0.0"
   inkscape:pagecheckerboard="0"
   inkscape:deskcolor="#d1d1d1"
   inkscape:zoom="6.5390625"
   inkscape:cx="64"
   inkscape:cy="64"
   inkscape:window-width="1920"
   inkscape:window-height="1043"
   inkscape:window-x="0"
   inkscape:window-y="0"
   inkscape:window-maximized="1"
   inkscape:current-layer="Calque_12" />&#10;<style
   type="text/css"
   id="style1">&#10;	.st0{fill:#2E6480;}&#10;	.st1{fill:url(#SVGID_1_);}&#10;	.st2{fill:url(#SVGID_2_);}&#10;	.st3{fill:url(#SVGID_3_);}&#10;	.st4{fill:url(#SVGID_4_);}&#10;	.st5{fill:url(#SVGID_5_);}&#10;	.st6{fill:url(#SVGID_6_);}&#10;	.st7{fill:url(#SVGID_7_);}&#10;</style>&#10;<g
   id="g45">&#10;		<g
   id="g40">&#10;			<g
   id="g13">&#10;				<linearGradient
   id="SVGID_1_"
   gradientUnits="userSpaceOnUse"
   x1="39.854401"
   y1="59.943001"
   x2="25.4762"
   y2="82.801003">&#10;					<stop
   offset="0"
   style="stop-color:#9CF2FF"
   id="stop1" />&#10;					<stop
   offset="0.4019"
   style="stop-color:#9AF0FF"
   id="stop2" />&#10;					<stop
   offset="0.6274"
   style="stop-color:#91E8FF"
   id="stop3" />&#10;					<stop
   offset="0.8092"
   style="stop-color:#84DBFF"
   id="stop4" />&#10;					<stop
   offset="0.9669"
   style="stop-color:#70C9FF"
   id="stop5" />&#10;					<stop
   offset="1"
   style="stop-color:#6BC4FF"
   id="stop6" />&#10;				</linearGradient>&#10;				<path
   class="st1"
   d="M 39.2,88.9 C 53.7,88.2 52.5,70.2 44.7,62.6 37.8,55.9 26.1,52.8 14.5,62.4 c 27,-15.8 37.7,17 27.9,20.3 -9.2,3.2 -12.3,-7.4 -6.1,-12.3 -0.3,0.1 -0.5,0.2 -0.8,0.3 -9.1,6.6 -3.8,18.5 3.7,18.2 z"
   id="path6"
   style="fill:url(#SVGID_1_)" />&#10;				<linearGradient
   id="SVGID_2_"
   gradientUnits="userSpaceOnUse"
   x1="15.972"
   y1="43.439301"
   x2="49.955002"
   y2="91.207001">&#10;					<stop
   offset="0"
   style="stop-color:#99E8FF"
   id="stop7" />&#10;					<stop
   offset="0.2786"
   style="stop-color:#96E6FF"
   id="stop8" />&#10;					<stop
   offset="0.4778"
   style="stop-color:#8DE0FF"
   id="stop9" />&#10;					<stop
   offset="0.6522"
   style="stop-color:#7DD5FF"
   id="stop10" />&#10;					<stop
   offset="0.8123"
   style="stop-color:#67C6FF"
   id="stop11" />&#10;					<stop
   offset="0.9614"
   style="stop-color:#4BB3FF"
   id="stop12" />&#10;					<stop
   offset="1"
   style="stop-color:#42ADFF"
   id="stop13" />&#10;				</linearGradient>&#10;				<path
   class="st2"
   d="m 53,69.3 c -5,-13.8 -25.3,-22 -38.8,-6.7 0.1,-0.1 0.3,-0.2 0.4,-0.2 11.5,-9.6 23.3,-6.5 30.2,0.2 7.8,7.6 9,25.6 -5.5,26.3 C 31.7,89.3 26.4,77.3 35.7,70.7 23,75 23.7,87 32.5,91.7 48.2,100.1 58.3,83.4 53,69.3 Z"
   id="path13"
   style="fill:url(#SVGID_2_)" />&#10;			</g>&#10;			<g
   id="g26">&#10;				<linearGradient
   id="SVGID_3_"
   gradientUnits="userSpaceOnUse"
   x1="59.260101"
   y1="45.790798"
   x2="96.165298"
   y2="97.666199">&#10;					<stop
   offset="0"
   style="stop-color:#99E8FF"
   id="stop14" />&#10;					<stop
   offset="0.2786"
   style="stop-color:#96E6FF"
   id="stop15" />&#10;					<stop
   offset="0.4778"
   style="stop-color:#8DE0FF"
   id="stop16" />&#10;					<stop
   offset="0.6522"
   style="stop-color:#7DD5FF"
   id="stop17" />&#10;					<stop
   offset="0.8123"
   style="stop-color:#67C6FF"
   id="stop18" />&#10;					<stop
   offset="0.9614"
   style="stop-color:#4BB3FF"
   id="stop19" />&#10;					<stop
   offset="1"
   style="stop-color:#42ADFF"
   id="stop20" />&#10;				</linearGradient>&#10;				<path
   class="st3"
   d="M 77.2,90.3 C 66.2,85.7 59.4,72.8 57,67.7 c -0.2,-0.5 -0.5,-0.9 -0.7,-1.4 7.8,32.3 45.8,42.7 49.8,15.1 -6.1,11.2 -17,13.9 -28.9,8.9 z"
   id="path20"
   style="fill:url(#SVGID_3_)" />&#10;				<linearGradient
   id="SVGID_4_"
   gradientUnits="userSpaceOnUse"
   x1="57.9603"
   y1="72.103203"
   x2="100.7883"
   y2="89.408897">&#10;					<stop
   offset="0"
   style="stop-color:#9CF2FF"
   id="stop21" />&#10;					<stop
   offset="0.4019"
   style="stop-color:#9AF0FF"
   id="stop22" />&#10;					<stop
   offset="0.6274"
   style="stop-color:#91E8FF"
   id="stop23" />&#10;					<stop
   offset="0.8092"
   style="stop-color:#84DBFF"
   id="stop24" />&#10;					<stop
   offset="0.9669"
   style="stop-color:#70C9FF"
   id="stop25" />&#10;					<stop
   offset="1"
   style="stop-color:#6BC4FF"
   id="stop26" />&#10;				</linearGradient>&#10;				<path
   class="st4"
   d="m 77.2,90.3 c 11.9,5 22.8,2.3 29,-8.9 0,-0.1 0,-0.1 0,-0.2 C 95.3,94.6 66.6,86.1 57,67.7 c 2.4,5.1 9.2,18 20.2,22.6 z"
   id="path26"
   style="fill:url(#SVGID_4_)" />&#10;			</g>&#10;			<g
   id="g39">&#10;				<linearGradient
   id="SVGID_5_"
   gradientUnits="userSpaceOnUse"
   x1="11.2723"
   y1="45.043598"
   x2="99.496002"
   y2="65.884003">&#10;					<stop
   offset="0"
   style="stop-color:#9CF2FF"
   id="stop27" />&#10;					<stop
   offset="0.4019"
   style="stop-color:#9AF0FF"
   id="stop28" />&#10;					<stop
   offset="0.6274"
   style="stop-color:#91E8FF"
   id="stop29" />&#10;					<stop
   offset="0.8092"
   style="stop-color:#84DBFF"
   id="stop30" />&#10;					<stop
   offset="0.9669"
   style="stop-color:#70C9FF"
   id="stop31" />&#10;					<stop
   offset="1"
   style="stop-color:#6BC4FF"
   id="stop32" />&#10;				</linearGradient>&#10;				<path
   class="st5"
   d="m 34,48.6 c 16,0.3 28.3,14.6 42.7,23.3 14.8,8.9 28.3,1 29.2,-9 0.9,-9.7 -8.6,-17 -17.2,-17.4 -0.1,0 -0.1,0 -0.2,0.1 C 102,48.9 98.9,63.2 93,67 76,78.1 38.1,17.2 12.1,63.3 c 0.3,-0.4 0.7,-0.8 1,-1.2 C 16,57.7 23.2,48.4 34,48.6 Z"
   id="path32"
   style="fill:url(#SVGID_5_)" />&#10;				<linearGradient
   id="SVGID_6_"
   gradientUnits="userSpaceOnUse"
   x1="32.119999"
   y1="17.2022"
   x2="85.641403"
   y2="92.4338">&#10;					<stop
   offset="0"
   style="stop-color:#99E8FF"
   id="stop33" />&#10;					<stop
   offset="0.2786"
   style="stop-color:#96E6FF"
   id="stop34" />&#10;					<stop
   offset="0.4778"
   style="stop-color:#8DE0FF"
   id="stop35" />&#10;					<stop
   offset="0.6522"
   style="stop-color:#7DD5FF"
   id="stop36" />&#10;					<stop
   offset="0.8123"
   style="stop-color:#67C6FF"
   id="stop37" />&#10;					<stop
   offset="0.9614"
   style="stop-color:#4BB3FF"
   id="stop38" />&#10;					<stop
   offset="1"
   style="stop-color:#42ADFF"
   id="stop39" />&#10;				</linearGradient>&#10;				<path
   class="st6"
   d="m 88.7,45.5 c 8.6,0.5 18.1,7.7 17.2,17.4 -0.9,10 -14.3,17.9 -29.2,9 C 62.3,63.2 50,48.9 34,48.6 c -10.8,-0.2 -18.1,9 -20.9,13.5 9,-10.5 17,-13.2 26.4,-9.9 18.1,6.3 31.3,31.1 52.3,29.4 31.5,-2.5 20.8,-43.5 -3.1,-36.1 z"
   id="path39"
   style="fill:url(#SVGID_6_)" />&#10;			</g>&#10;		</g>&#10;		<linearGradient
   id="SVGID_7_"
   gradientUnits="userSpaceOnUse"
   x1="23.3111"
   y1="41.619999"
   x2="90.630501"
   y2="57.522301">&#10;			<stop
   offset="0"
   style="stop-color:#9CF2FF"
   id="stop40" />&#10;			<stop
   offset="0.4019"
   style="stop-color:#9AF0FF"
   id="stop41" />&#10;			<stop
   offset="0.6274"
   style="stop-color:#91E8FF"
   id="stop42" />&#10;			<stop
   offset="0.8092"
   style="stop-color:#84DBFF"
   id="stop43" />&#10;			<stop
   offset="0.9669"
   style="stop-color:#70C9FF"
   id="stop44" />&#10;			<stop
   offset="1"
   style="stop-color:#6BC4FF"
   id="stop45" />&#10;		</linearGradient>&#10;		<path
   class="st7"
   d="m 26.5,44.8 c 25.2,-15.4 47.8,27.8 65.4,17.7 6.3,-3.6 3.2,-15.7 -8.3,-11.3 6.3,0 6,5.1 2.1,6.6 C 77.2,61.1 49.4,25 26.5,44.8 Z"
   id="path45"
   style="fill:url(#SVGID_7_)" />&#10;	</g>&#10;</svg>
